docs/theme/_media/vvd-logo.svg

<?xml version="1.0" encoding="UTF-8"?>
<svg fill="none" viewBox="0 0 562 107" xmlns="http://www.w3.org/2000/svg">
    <path d="m238.18 102.51c-1.991 0-3.639-0.309-4.944-0.927-1.236-0.618-2.266-1.51-3.09-2.6779l-45.325-64.072c-0.549-0.8928-0.824-1.6825-0.824-2.3693 0-0.7554 0.24-1.4421 0.721-2.0602 0.481-0.6867 1.099-1.2704 1.854-1.7511 0.824-0.5494 1.683-0.9615 2.576-1.2362 0.961-0.2747 1.888-0.412 2.781-0.412s1.785 0.1717 2.678 0.515c0.961 0.3434 1.717 0.8928 2.266 1.6482l41.616 59.849 41.204-59.849c0.893-1.4421 2.404-2.1632 4.533-2.1632 0.893 0 1.785 0.1373 2.678 0.412s1.717 0.6868 2.472 1.2362c0.756 0.4807 1.374 1.0644 1.855 1.7511 0.48 0.6181 0.721 1.3392 0.721 2.1632 0 0.8241-0.275 1.5795-0.824 2.2663l-44.81 64.072c-0.824 1.1679-1.888 2.0599-3.193 2.6779s-2.953 0.927-4.945 0.927z" fill="#fff"/>
    <path d="m314.85 97.665c0 1.9916-0.584 3.2961-1.751 3.9141s-2.884 0.927-5.15 0.927c-2.198 0-3.881-0.309-5.048-0.927s-1.751-1.9225-1.751-3.9141v-65.823c0-1.9916 0.584-3.2963 1.751-3.9144s2.85-0.9271 5.048-0.9271c2.266 0 3.983 0.309 5.15 0.9271s1.751 1.9228 1.751 3.9144v65.823z" fill="#fff"/>
    <path d="m378.16 102.51c-1.991 0-3.639-0.309-4.944-0.927-1.236-0.618-2.266-1.51-3.09-2.6779l-45.325-64.072c-0.549-0.8928-0.824-1.6825-0.824-2.3693 0-0.7554 0.24-1.4421 0.721-2.0602 0.481-0.6867 1.099-1.2704 1.854-1.7511 0.824-0.5494 1.683-0.9615 2.576-1.2362 0.961-0.2747 1.888-0.412 2.781-0.412s1.785 0.1717 2.678 0.515c0.962 0.3434 1.717 0.8928 2.266 1.6482l41.616 59.849 41.204-59.849c0.893-1.4421 2.404-2.1632 4.533-2.1632 0.893 0 1.785 0.1373 2.678 0.412s1.717 0.6868 2.472 1.2362c0.756 0.4807 1.374 1.0644 1.855 1.7511 0.48 0.6181 0.721 1.3392 0.721 2.1632 0 0.8241-0.275 1.5795-0.824 2.2663l-44.81 64.072c-0.824 1.1679-1.888 2.0599-3.193 2.6779s-2.953 0.927-4.945 0.927z" fill="#fff"/>
    <path d="m454.82 97.665c0 1.9916-0.583 3.2961-1.751 3.9141-1.167 0.618-2.884 0.927-5.15 0.927-2.198 0-3.88-0.309-5.048-0.927-1.167-0.618-1.751-1.9225-1.751-3.9141v-65.823c0-1.9916 0.584-3.2963 1.751-3.9144 1.168-0.6181 2.85-0.9271 5.048-0.9271 2.266 0 3.983 0.309 5.15 0.9271 1.168 0.6181 1.751 1.9228 1.751 3.9144v65.823z" fill="#fff"/>
    <path d="m561.19 82.934c0 12.773-10.164 19.16-30.491 19.16h-58.407c-3.159 0-4.739-1.613-4.739-4.8411v-65.102c0-3.159 1.58-4.7385 4.739-4.7385h58.407c20.327 0 30.491 6.3867 30.491 19.16v36.363zm-79.936 8.0348h49.033c6.043 0 10.438-0.7898 13.185-2.3692 2.816-1.5795 4.223-3.4681 4.223-5.6656v-36.363c0-2.2662-1.407-4.1547-4.223-5.6655-2.747-1.5795-7.142-2.3693-13.185-2.3693h-49.033v52.432z" fill="#fff"/>
    <path d="m119.06 105.99h-69.93c-7.666 0-16.189-6.217-19.032-13.883l-29.172-77.941c-2.8428-7.666 1.065-13.883 8.7339-13.883h69.927c7.666 0 16.189 6.2167 19.032 13.883l29.172 77.941c2.846 7.666-1.062 13.883-8.731 13.883z" fill="url(#f)"/>
    <path d="m151.76 20.914h-71.746c-7.1643 0-15.13 5.8089-17.788 12.973l-21.936 59.13c-2.658 7.1642 0.9946 12.973 8.1618 12.973h71.746c7.164 0 15.13-5.809 17.788-12.973l21.935-59.13c2.658-7.1643-0.997-12.973-8.161-12.973z" fill="url(#e)"/>
    <path d="m48.675 105.99h70.477c0.434-9e-3 0.855-0.038 1.263-0.086 0.024 3e-3 0.05 4e-3 0.076 4e-3 4.107 0 8.429-2.2 10.415-3.814 2.888-2.3471 4.601-4.023 6.454-7.4812-3.32 5.8052-6.757 5.5122-9.242-1.3202-0.108-0.2984-0.228-0.5467-0.358-0.7486-0.049-0.1443-0.1-0.2891-0.154-0.4345l-25.832-69.636c-0.196-0.5276-0.418-1.0483-0.666-1.5606h-21.091c-7.1643 0-15.13 5.8088-17.788 12.973l-21.936 59.13c-0.1045 0.2816-0.1992 0.561-0.2843 0.8381-2.5059 6.2236-5.502 6.3006-8.7982 0.5963 1.9128 3.5333 3.6811 5.2456 6.6633 7.6433 2.0503 1.649 6.5118 3.897 10.752 3.897 0.0166 0 0.033-1e-3 0.049-1e-3z" clip-rule="evenodd" fill="url(#d)" fill-rule="evenodd"/>
    <g opacity=".4" style="mix-blend-mode:hard-light">
        <path d="m49.131 105.99h69.93c0.411 0 0.812-0.018 1.201-0.053 0.052 0.013 0.109 0.019 0.169 0.019 4.107 0 8.429-2.2 10.415-3.814 2.889-2.3467 4.601-4.0226 6.454-7.4808-3.154 5.5168-6.415 5.5258-8.864-0.3495-0.152-0.718-0.365-1.4544-0.644-2.2047l-29.172-77.941c-2.8428-7.666-11.366-13.883-19.032-13.883h-69.927c-7.6689 0-11.577 6.2167-8.7339 13.883l29.172 77.941c2.8428 7.666 11.366 13.883 19.032 13.883z" clip-rule="evenodd" fill="url(#c)" fill-rule="evenodd"/>
    </g>
    <g opacity=".15" style="mix-blend-mode:hard-light">
        <path d="m80.107 21.002h71.746c7.165 0 10.82 5.8089 8.162 12.973l-21.936 59.13c-2.658 7.1648-10.623 12.973-17.787 12.973h-71.518c-0.0188 2e-3 -0.038 2e-3 -0.0576 2e-3 -0.0752 0-0.1505 0-0.2258-2e-3 -0.9706-4e-3 -1.8762-0.115-2.71-0.321-3.2335-0.681-6.2388-2.305-7.8163-3.573-2.9822-2.3982-4.7505-4.1106-6.6633-7.6438 3.2961 5.7048 6.2921 5.6278 8.798-0.596 0.0852-0.2774 0.18-0.5571 0.2846-0.839l21.936-59.13c2.658-7.1643 10.623-12.973 17.788-12.973z" clip-rule="evenodd" fill="url(#b)" fill-rule="evenodd"/>
    </g>
    <path d="m151.92 21.002h-71.746c-7.1643 0-15.13 5.8089-17.788 12.973l-21.936 59.13c-2.658 7.1648 0.9946 12.973 8.1618 12.973h71.746c7.165 0 15.13-5.808 17.788-12.973l21.936-59.13c2.658-7.1643-0.998-12.973-8.162-12.973z" fill="url(#a)" fill-opacity=".2"/>
    <defs>
        <linearGradient id="f" x1="83.316" x2="-9.6268e-7" y1=".2876" y2="-18.355" gradientUnits="userSpaceOnUse">
            <stop stop-color="#A662FF" offset="0"/>
            <stop stop-color="#57EDFD" offset="1"/>
        </linearGradient>
        <linearGradient id="e" x1="107.48" x2="165.25" y1="91.43" y2="23.073" gradientUnits="userSpaceOnUse">
            <stop stop-color="#FC27F6" offset="0"/>
            <stop stop-color="#FFA694" offset="1"/>
        </linearGradient>
        <linearGradient id="d" x1="65.134" x2="137.17" y1="21.002" y2="21.002" gradientUnits="userSpaceOnUse">
            <stop stop-color="#7600FF" offset="0"/>
            <stop stop-color="#FB2FFB" offset="1"/>
        </linearGradient>
        <linearGradient id="c" x1="95.515" x2="78.713" y1="2.359" y2="9.2637" gradientUnits="userSpaceOnUse">
            <stop stop-color="#fff" offset="0"/>
            <stop stop-color="#fff" stop-opacity="0" offset="1"/>
        </linearGradient>
        <linearGradient id="b" x1="66.745" x2="76.348" y1="26.525" y2="30.049" gradientUnits="userSpaceOnUse">
            <stop stop-color="#fff" offset="0"/>
            <stop stop-color="#fff" stop-opacity="0" offset="1"/>
        </linearGradient>
        <linearGradient id="a" x1="150.75" x2="138.78" y1="65.191" y2="61.049" gradientUnits="userSpaceOnUse">
            <stop stop-color="#fff" offset="0"/>
            <stop stop-color="#fff" stop-opacity="0" offset="1"/>
        </linearGradient>
    </defs>
</svg>

<svg width="562" height="107" viewBox="0 0 562 107" fill="none" xmlns="http://www.w3.org/2000/svg">
<path d="M238.183 102.506C236.192 102.506 234.544 102.197 233.239 101.579C232.003 100.961 230.973 100.069 230.149 98.9011L184.824 34.8288C184.275 33.936 184 33.1463 184 32.4595C184 31.7041 184.24 31.0174 184.721 30.3993C185.202 29.7126 185.82 29.1289 186.575 28.6482C187.399 28.0988 188.258 27.6867 189.151 27.412C190.112 27.1373 191.039 27 191.932 27C192.825 27 193.717 27.1717 194.61 27.515C195.571 27.8584 196.327 28.4078 196.876 29.1632L238.492 89.0121L279.696 29.1632C280.589 27.7211 282.1 27 284.229 27C285.122 27 286.014 27.1373 286.907 27.412C287.8 27.6867 288.624 28.0988 289.379 28.6482C290.135 29.1289 290.753 29.7126 291.234 30.3993C291.714 31.0174 291.955 31.7385 291.955 32.5625C291.955 33.3866 291.68 34.142 291.131 34.8288L246.321 98.9011C245.497 100.069 244.433 100.961 243.128 101.579C241.823 102.197 240.175 102.506 238.183 102.506Z" fill="#ffffff"/>
<path d="M314.85 97.6649C314.85 99.6565 314.266 100.961 313.099 101.579C311.932 102.197 310.215 102.506 307.949 102.506C305.751 102.506 304.068 102.197 302.901 101.579C301.734 100.961 301.15 99.6565 301.15 97.6649V31.8415C301.15 29.8499 301.734 28.5452 302.901 27.9271C304.068 27.309 305.751 27 307.949 27C310.215 27 311.932 27.309 313.099 27.9271C314.266 28.5452 314.85 29.8499 314.85 31.8415V97.6649Z" fill="#ffffff"/>
<path d="M378.156 102.506C376.165 102.506 374.517 102.197 373.212 101.579C371.976 100.961 370.946 100.069 370.122 98.9011L324.797 34.8288C324.248 33.936 323.973 33.1463 323.973 32.4595C323.973 31.7041 324.213 31.0174 324.694 30.3993C325.175 29.7126 325.793 29.1289 326.548 28.6482C327.372 28.0988 328.231 27.6867 329.124 27.412C330.085 27.1373 331.012 27 331.905 27C332.798 27 333.69 27.1717 334.583 27.515C335.545 27.8584 336.3 28.4078 336.849 29.1632L378.465 89.0121L419.669 29.1632C420.562 27.7211 422.073 27 424.202 27C425.095 27 425.987 27.1373 426.88 27.412C427.773 27.6867 428.597 28.0988 429.352 28.6482C430.108 29.1289 430.726 29.7126 431.207 30.3993C431.687 31.0174 431.928 31.7385 431.928 32.5625C431.928 33.3866 431.653 34.142 431.104 34.8288L386.294 98.9011C385.47 100.069 384.406 100.961 383.101 101.579C381.796 102.197 380.148 102.506 378.156 102.506Z" fill="#ffffff"/>
<path d="M454.823 97.6649C454.823 99.6565 454.24 100.961 453.072 101.579C451.905 102.197 450.188 102.506 447.922 102.506C445.724 102.506 444.042 102.197 442.874 101.579C441.707 100.961 441.123 99.6565 441.123 97.6649V31.8415C441.123 29.8499 441.707 28.5452 442.874 27.9271C444.042 27.309 445.724 27 447.922 27C450.188 27 451.905 27.309 453.072 27.9271C454.24 28.5452 454.823 29.8499 454.823 31.8415V97.6649Z" fill="#ffffff"/>
<path d="M561.188 82.9345C561.188 95.7077 551.024 102.094 530.697 102.094H472.29C469.131 102.094 467.551 100.481 467.551 97.2529V32.1505C467.551 28.9915 469.131 27.412 472.29 27.412H530.697C551.024 27.412 561.188 33.7987 561.188 46.5719V82.9345ZM481.252 90.9693H530.285C536.328 90.9693 540.723 90.1795 543.47 88.6001C546.286 87.0206 547.693 85.132 547.693 82.9345V46.5719C547.693 44.3057 546.286 42.4172 543.47 40.9064C540.723 39.3269 536.328 38.5371 530.285 38.5371H481.252V90.9693Z" fill="#ffffff"/>
<path d="M119.061 105.994H49.1314C41.4654 105.994 32.9427 99.777 30.0999 92.111L0.927937 14.1703C-1.91491 6.5043 1.9929 0.28758 9.66183 0.28758H79.5887C87.2547 0.28758 95.7773 6.5043 98.6202 14.1703L127.792 92.111C130.638 99.777 126.73 105.994 119.061 105.994Z" fill="url(#paint0_linear)"/>
<path d="M151.763 20.9141H80.0168C72.8525 20.9141 64.8873 26.723 62.2293 33.8873L40.2933 93.0178C37.6353 100.182 41.2879 105.991 48.4551 105.991H120.201C127.365 105.991 135.331 100.182 137.989 93.0178L159.924 33.8873C162.582 26.723 158.927 20.9141 151.763 20.9141Z" fill="url(#paint1_linear)"/>
<path fill-rule="evenodd" clip-rule="evenodd" d="M48.6752 105.992H119.152C119.586 105.983 120.007 105.954 120.415 105.906C120.439 105.909 120.465 105.91 120.491 105.91C124.598 105.91 128.92 103.71 130.906 102.096C133.794 99.7489 135.507 98.073 137.36 94.6148C134.04 100.42 130.603 100.127 128.118 93.2946C128.01 92.9962 127.89 92.7479 127.76 92.546C127.711 92.4017 127.66 92.2569 127.606 92.1115L101.774 22.4752C101.578 21.9476 101.356 21.4269 101.108 20.9146H80.0168C72.8525 20.9146 64.8873 26.7234 62.2292 33.8878L40.2933 93.0183C40.1888 93.2999 40.0941 93.5793 40.009 93.8564C37.5031 100.08 34.507 100.157 31.2108 94.4527C33.1236 97.986 34.8919 99.6983 37.8741 102.096C39.9244 103.745 44.3859 105.993 48.6262 105.993C48.6428 105.993 48.6592 105.992 48.6752 105.992Z" fill="url(#paint2_linear)"/>
<g style="mix-blend-mode:hard-light" opacity="0.4">
<path fill-rule="evenodd" clip-rule="evenodd" d="M49.1314 105.994H119.061C119.472 105.994 119.873 105.976 120.262 105.941C120.314 105.954 120.371 105.96 120.431 105.96C124.538 105.96 128.86 103.76 130.846 102.146C133.735 99.7993 135.447 98.1234 137.3 94.6652C134.146 100.182 130.885 100.191 128.436 94.3157C128.284 93.5977 128.071 92.8613 127.792 92.111L98.6202 14.1703C95.7774 6.50432 87.2547 0.287598 79.5887 0.287598H9.66184C1.99291 0.287598 -1.91489 6.50432 0.927951 14.1703L30.0999 92.111C32.9427 99.777 41.4654 105.994 49.1314 105.994Z" fill="url(#paint3_linear)"/>
</g>
<g style="mix-blend-mode:hard-light" opacity="0.15">
<path fill-rule="evenodd" clip-rule="evenodd" d="M80.1074 21.0015H151.853C159.018 21.0015 162.673 26.8104 160.015 33.9747L138.079 93.1052C135.421 100.27 127.456 106.078 120.292 106.078H48.7743C48.7555 106.08 48.7363 106.08 48.7167 106.08C48.6415 106.08 48.5662 106.08 48.4909 106.078C47.5203 106.074 46.6147 105.963 45.7809 105.757C42.5474 105.076 39.5421 103.452 37.9646 102.184C34.9824 99.7858 33.2141 98.0734 31.3013 94.5402C34.5974 100.245 37.5934 100.168 40.0993 93.9442C40.1845 93.6668 40.2793 93.3871 40.3839 93.1052L62.3198 33.9747C64.9778 26.8104 72.9431 21.0015 80.1074 21.0015Z" fill="url(#paint4_linear)"/>
</g>
<path d="M151.924 21.0015H80.1782C73.0139 21.0015 65.0487 26.8104 62.3907 33.9747L40.4547 93.1052C37.7967 100.27 41.4493 106.078 48.6165 106.078H120.362C127.527 106.078 135.492 100.27 138.15 93.1052L160.086 33.9747C162.744 26.8104 159.088 21.0015 151.924 21.0015Z" fill="url(#paint5_linear)" fill-opacity="0.2"/>
<defs>
<linearGradient id="paint0_linear" x1="83.3165" y1="0.287595" x2="-9.6268e-07" y2="-18.355" gradientUnits="userSpaceOnUse">
<stop stop-color="#A662FF"/>
<stop offset="1" stop-color="#57EDFD"/>
</linearGradient>
<linearGradient id="paint1_linear" x1="107.483" y1="91.4295" x2="165.252" y2="23.0732" gradientUnits="userSpaceOnUse">
<stop stop-color="#FC27F6"/>
<stop offset="1" stop-color="#FFA694"/>
</linearGradient>
<linearGradient id="paint2_linear" x1="65.1341" y1="21.0022" x2="137.173" y2="21.0022" gradientUnits="userSpaceOnUse">
<stop stop-color="#7600FF"/>
<stop offset="1" stop-color="#FB2FFB"/>
</linearGradient>
<linearGradient id="paint3_linear" x1="95.5148" y1="2.35901" x2="78.7134" y2="9.26369" gradientUnits="userSpaceOnUse">
<stop stop-color="white"/>
<stop offset="1" stop-color="white" stop-opacity="0"/>
</linearGradient>
<linearGradient id="paint4_linear" x1="66.7454" y1="26.5252" x2="76.3478" y2="30.0488" gradientUnits="userSpaceOnUse">
<stop stop-color="white"/>
<stop offset="1" stop-color="white" stop-opacity="0"/>
</linearGradient>
<linearGradient id="paint5_linear" x1="150.752" y1="65.1914" x2="138.784" y2="61.0486" gradientUnits="userSpaceOnUse">
<stop stop-color="white"/>
<stop offset="1" stop-color="white" stop-opacity="0"/>
</linearGradient>
</defs>
</svg>
